src/chatboxes.svg

<?xml version="1.0" encoding="utf-8"?>
<!-- Generated by IcoMoon.io -->
<!DOCTYPE svg PUBLIC "-//W3C//DTD SVG 1.1//EN" "http://www.w3.org/Graphics/SVG/1.1/DTD/svg11.dtd">
<svg version="1.1" xmlns="http://www.w3.org/2000/svg" xmlns:xlink="http://www.w3.org/1999/xlink" width="512" height="512" viewBox="0 0 512 512">
<path fill="#000000" d="M294.1 365.5c-2.6-1.8-7.2-4.5-17.5-4.5h-116.1c-34.7 0-64.5-26.1-64.5-59.2v-100.8h-1.8c-26.3 0-46.2 20.5-46.2 45.5v128.9c0 25 21.4 40.6 47.7 40.6h16.3v48l53.1-45c1.9-1.4 5.3-3 13.2-3h89.8c23 0 47.4-11.4 51.9-32l-25.9-18.5z"></path>
<path fill="#000000" d="M401 48h-217.3c-34.7 0-55.7 26.8-55.7 59.8v168.2c0 33.1 28 60 62.7 60h101.1c10.4 0 15 2.3 17.5 4.2l74.7 59.8v-64h17c34.8 0 63-26.9 63-59.9v-168.3c0-33-28.2-59.8-63-59.8z"></path>
</svg>

<?xml version="1.0" encoding="utf-8"?>
<!-- Generator: Adobe Illustrator 16.2.1, SVG Export Plug-In . SVG Version: 6.00 Build 0)  -->
<!DOCTYPE svg PUBLIC "-//W3C//DTD SVG 1.1//EN" "http://www.w3.org/Graphics/SVG/1.1/DTD/svg11.dtd">
<svg version="1.1" id="Layer_1" xmlns="http://www.w3.org/2000/svg" xmlns:xlink="http://www.w3.org/1999/xlink" x="0px" y="0px"
	 width="512px" height="512px" viewBox="0 0 512 512" style="enable-background:new 0 0 512 512;" xml:space="preserve">
<g>
	<path d="M294.1,365.5c-2.6-1.8-7.2-4.5-17.5-4.5H160.5c-34.7,0-64.5-26.1-64.5-59.2V201h-1.8C67.9,201,48,221.5,48,246.5v128.9
		c0,25,21.4,40.6,47.7,40.6H112v48l53.1-45c1.9-1.4,5.3-3,13.2-3h89.8c23,0,47.4-11.4,51.9-32L294.1,365.5z"/>
	<path d="M401,48H183.7C149,48,128,74.8,128,107.8v69.7V276c0,33.1,28,60,62.7,60h101.1c10.4,0,15,2.3,17.5,4.2L384,400v-64h17
		c34.8,0,63-26.9,63-59.9V107.8C464,74.8,435.8,48,401,48z"/>
</g>
</svg>
